X: 4
T:Lads-a-Bunchum, Hinton 2
M:4/4
L:1/8
A:Hinton
P:A(A2(B3A2)2)3A2
K:D
P:A
ABAG F2A2|GFGE F2D2|A3F  G2B2|AGFE D4||
P:B
A2A2 A2Bc|d2c2 B2A2|B2G2 E2GB|A4   A4||
